X:1
T:Ride : Le son du tonnelier
E:12
Z:Roger Ngaret (94-95)
R:ridee
C:Trad.
S:
A:Bretagne
M:2/4
L:1/16
K:C
Q:1/4=140
d2d2 "D"c2B2 | A2d2 "G"G2d2 | d2d2 "D"c2B2 | A2/B2/A2 "G"G4 ::\
G2G2 "D"A2B2 | c2A2 "G"d2d2 | c2B2 "D"A2G2 |1 \
A4 "G"G4 :|2 A2/B2/A2 G4 |]
%%rm
%%rm  Dans 10 ans je m'en irai
%%rm  J'aime le son du tonnelier
%%rm  J'aime le son du tonnelier
%%rm  Oui j'aime le jus d'la pomme
%%rm  J'aime le son du tonnelier
%%rm  Quand la rcolte est bonne.
